X:2283
T:Bugle, The
T:Lady in the boat, The
S:sessions
R:Jig
O:England
O:Ireland
O:Scotland
M:6/8
K:D
A|\
dfA d2A|dfA d2f|a2f fed|efe ecA|\
dfA d2A|dfA d2f|
a2f ede|fdd d2::\
e|\
f3 gfg|a3 f2g|
agf fed|efe ecA|\
f3 gfg|a3 f2g|agf gec|d3 d2:|
